X: 69
T: Zwiefacher Leit Leit
O: Germany
M: 3/4
L: 1/8
Q: 1/4=200
K: Eb
%%MIDI program 65
%%MIDI chordprog 20
%%MIDI bassprog 57
  [M:2/4]"Eb"B3z      |B3z                |\
  [M:3/4]B2 G2 E2     |"Bb"D2 FA GF       |
  "Eb"E2 z4           |:[M:2/4]"Eb"B3z    |\
  B3z                 |[M:3/4] B2 G2 E2   |
  "Bb"D2 F2 B2        | D2 F2 B2          |\
  [M:2/4] "Eb" B3z    |B3z                |
  [M:3/4] "Bb"B2 A2 F2|[1 E2 G2 B2        |\
  "Eb"E2 G2 B2        :|[2"Eb" E2 z4      |
K:Bb
%%MIDI program 57
|:[M:2/4]"Bb"f3z      |f3z                |\
  [M:3/4] f2 d2 B2    |"F"A2 c2 f2        |
  A2 c2 f2            | [M:2/4] "Bb" f3z  |\
  f3z                 |[M:3/4] "F"f2 e2 c2|\
  [1 B2 d2 f2         |"Bb"B2 d2 f2       :| [2"Bb" B2 z4|



